build/category/EnvelopeSolid.svg

<svg xmlns="http://www.w3.org/2000/svg" fill="none" viewBox="0 0 24 24" focusable="false"><path d="M0 0H24V24H0z"/><path fill="#74767B" fill-rule="evenodd" d="M15 4.3L9 4.3C8.06112 4.3 7.3 5.06112 7.3 6L7.3 11.4911L6.00412 10.5295L6 10.5422L4.29248 9.27515C4.09368 9.12762 4.07427 8.83504 4.27692 8.69285L6 7.48389L6 6C6 4.34315 7.34315 3 9 3L15 3C16.6569 3 18 4.34315 18 6L18 7.48389L19.7231 8.69285C19.9779 8.87166 19.9443 9.23851 19.6922 9.42118L18 10.6474L17.9945 10.6293L16.7 11.5673L16.7 6C16.7 5.06112 15.9389 4.3 15 4.3ZM8.9624 7.28367C8.9624 6.92468 9.25342 6.63367 9.6124 6.63367L14.366 6.63367C14.725 6.63367 15.016 6.92468 15.016 7.28367C15.016 7.64265 14.725 7.93367 14.366 7.93367L9.6124 7.93367C9.25342 7.93367 8.9624 7.64265 8.9624 7.28367ZM8.9624 10.3142C8.9624 9.9552 9.25342 9.66418 9.6124 9.66418L14.366 9.66418C14.725 9.66418 15.016 9.9552 15.016 10.3142C15.016 10.6732 14.725 10.9642 14.366 10.9642L9.6124 10.9642C9.25342 10.9642 8.9624 10.6732 8.9624 10.3142ZM3 11.1487C3 10.6006 3.63322 10.4048 4.07338 10.7314L8.57475 14.0716L5.98913 16.0155C5.70219 16.2313 5.64447 16.6387 5.8602 16.9257C6.07592 17.2126 6.48341 17.2703 6.77035 17.0546L9.66348 14.8795L9.84194 15.0119C11.1213 15.9612 12.8686 15.9711 14.1587 15.0363L14.354 14.8948L17.2267 17.0546C17.5137 17.2703 17.9211 17.2126 18.1369 16.9257C18.3526 16.6387 18.2949 16.2313 18.0079 16.0155L15.4556 14.0966L20.0553 10.7634C20.4463 10.4801 21 10.6658 21 11.1487L21 18C21 19.6569 19.6569 21 18 21L6 21C4.34315 21 3 19.6569 3 18L3 11.1487Z"/></svg>

<svg xmlns="http://www.w3.org/2000/svg" fill="none" viewBox="0 0 24 24" focusable="false"><path fill="#74767B" fill-rule="evenodd" d="M9 4.29h6c.93 0 1.7.77 1.7 1.71v5.56l1.29-.94.01.02 1.69-1.22c.25-.19.28-.55.03-.73L18 7.48V6c0-1.66-1.35-3-3-3H9C7.34 3 6 4.34 6 6v1.48L4.27 8.69c-.2.14-.18.43.02.58L6 10.54v-.02l1.29.97V6c0-.94.77-1.71 1.71-1.71m-.04 2.99c0-.36.29-.65.65-.65h4.75c.36 0 .65.29.65.65s-.29.65-.65.65H9.61c-.36 0-.65-.29-.65-.65m0 3.03c0-.36.29-.65.65-.65h4.75c.36 0 .65.29.65.65s-.29.65-.65.65H9.61c-.36 0-.65-.29-.65-.65M3 11.14c0-.54.63-.74 1.07-.41l4.5 3.34-2.59 1.94a.65.65 0 0 0-.12.91c.21.29.62.35.91.13l2.89-2.18.18.14c1.28.95 3.02.96 4.31.02l.2-.14 2.87 2.16c.29.22.7.16.91-.13.22-.29.16-.69-.13-.91l-2.55-1.92 4.6-3.33c.39-.28.95-.1.95.38V18c0 1.65-1.35 3-3 3H6c-1.66 0-3-1.35-3-3z"/></svg>
